X:157
T: Was wollen wir singen und heben an
N: D0265
O: Europa, Mitteleuropa, Deutschland, Westfalen, Muenster
N: Inzipit = Variante zum Lied (?); Variante zu D0018 ??
R: geistliches Lied
M: 3/4
L: 1/8
K: Ab
E2 | A4B2 | c4d2 | c4B2 | A4
c2 | B2c2B2 | G3GG2 | B2A2F2 | G4
E2 | F2E2B,2 | E4
E2 | A4B2 | c4d2 | c4B2 | A4

@@@ Tune index: 2679
